svgs/sharp-regular/monkey.svg

<svg xmlns="http://www.w3.org/2000/svg" viewBox="0 0 576 512"><!--! Font Awesome Pro 6.6.0 by @fontawesome - https://fontawesome.com License - https://fontawesome.com/license (Commercial License) Copyright 2024 Fonticons, Inc. --><path d="M160 416c0-86.2 48.7-161 120-198.4l0 38.4 0 18c-43.7 32-72 83.7-72 142l0 48 192 0 0-24c0-39.8-32.2-72-72-72l-16 0-24 0 0-48 24 0 16 0c27 0 51.9 8.9 72 24l0-24 0-32 49.9 0L569 407l7 7 0 9.9 0 64 0 24-48 0 0-24 0-54.1-80-80 0 86.1 0 24 8 0 24 0 0 48-24 0-8 0-48 0-192 0-48 0-8 0C68.1 512 0 443.9 0 360L0 24 0 0 24 0 200 0l24 0 0 24 0 144 0 24-24 0-80 0-24 0 0-48 24 0 56 0 0-96L48 48l0 312c0 57.4 46.6 104 104 104l8 0 0-48zM448 256l-32 0-16 0-88 0 0-.6 0-31.4 0-20.2 0-12.3c-31.6-3.9-56-30.9-56-63.5c0-35.3 28.6-64 64-64c15.7-37.6 52.8-64 96-64s80.4 26.4 96 64c35.3 0 64 28.7 64 64c0 32.6-24.4 59.6-56 63.5l0 64.5-72 0zM384 64c-26.5 0-48 21.5-48 48c0 23.8 17.3 43.5 40 47.3l0 48.7 80 0 0-48.7c22.7-3.8 40-23.6 40-47.3c0-26.5-21.5-48-48-48l-64 0zm0 32a16 16 0 1 1 0 32 16 16 0 1 1 0-32zm48 16a16 16 0 1 1 32 0 16 16 0 1 1 -32 0z"/></svg>

<svg xmlns="http://www.w3.org/2000/svg" viewBox="0 0 576 512"><!--! Font Awesome Pro 6.4.0 by @fontawesome - https://fontawesome.com License - https://fontawesome.com/license (Commercial License) Copyright 2023 Fonticons, Inc. --><path d="M160 416c0-86.2 48.7-161 120-198.4V256v18c-43.7 32-72 83.7-72 142v48H400V440c0-39.8-32.2-72-72-72H312 288V320h24 16c27 0 51.9 8.9 72 24V320 288h49.9L569 407l7 7V424v64 24H528V488 433.9l-80-80V440v24h8 24v48H456h-8H400 208 160h-8C68.1 512 0 443.9 0 360V24 0H24 200h24V24 168v24H200 120 96V144h24 56V48H48V360c0 57.4 46.6 104 104 104h8V416zM448 256H416 400 312v-.6V224 203.8 191.5c-31.6-3.9-56-30.9-56-63.5c0-35.3 28.6-64 64-64c15.7-37.6 52.8-64 96-64s80.4 26.4 96 64c35.3 0 64 28.7 64 64c0 32.6-24.4 59.6-56 63.5V256H448zM384 64c-26.5 0-48 21.5-48 48c0 23.8 17.3 43.5 40 47.3V208h80V159.3c22.7-3.8 40-23.6 40-47.3c0-26.5-21.5-48-48-48H384zm0 32a16 16 0 1 1 0 32 16 16 0 1 1 0-32zm48 16a16 16 0 1 1 32 0 16 16 0 1 1 -32 0z"/></svg>
